X: 20394
Q: "With spirit."
M: C|
L: 1/8
K: D
d>cde gfed | c>dcB ABcA |\
d>cde gfeg | f<agf f(eef) |\
g>feg fdce | dcdB ABAF |\
|: A |\
f>edc Bgfe | dFGB AFDF |\


